src/assets/img/logo-gitlab.svg

<svg width="200" height="200" viewBox="0 0 200 200" fill="none" xmlns="http://www.w3.org/2000/svg">
<rect x="0.5" y="0.5" width="199" height="199" fill="white" />
<path d="M181.203 83.0431L180.967 82.4395L158.101 22.7638C157.636 21.5942 156.812 20.602 155.748 19.9296C154.683 19.2687 153.441 18.9503 152.19 19.0176C150.938 19.0848 149.738 19.5345 148.75 20.3058C147.773 21.0992 147.064 22.1744 146.72 23.3849L131.281 70.6216H68.7623L53.3229 23.3849C52.988 22.1678 52.2779 21.0872 51.2935 20.297C50.3057 19.5257 49.105 19.0761 47.8536 19.0088C46.6022 18.9416 45.3602 19.2599 44.2954 19.9209C43.2337 20.596 42.4107 21.5873 41.9424 22.7551L19.0326 82.4045L18.8051 83.0081C15.5135 91.6087 15.1071 101.046 17.6475 109.898C20.1878 118.75 25.537 126.536 32.8887 132.082L32.9674 132.143L33.1773 132.292L68.01 158.377L85.2427 171.419L95.7397 179.345C96.9675 180.277 98.4668 180.782 100.008 180.782C101.55 180.782 103.049 180.277 104.277 179.345L114.774 171.419L132.007 158.377L167.05 132.134L167.137 132.064C174.472 126.517 179.809 118.739 182.345 109.9C184.882 101.06 184.481 91.6355 181.203 83.0431Z" fill="#E24329"/>
<path d="M181.203 83.043L180.967 82.4395C169.825 84.7264 159.326 89.4458 150.22 96.2606L100 134.234C117.101 147.171 131.99 158.412 131.99 158.412L167.032 132.169L167.12 132.099C174.465 126.552 179.811 118.769 182.35 109.922C184.89 101.075 184.488 91.6418 181.203 83.043Z" fill="#FC6D26"/>
<path d="M68.0098 158.412L85.2424 171.455L95.7395 179.38C96.9673 180.312 98.4666 180.817 100.008 180.817C101.55 180.817 103.049 180.312 104.277 179.38L114.774 171.455L132.007 158.412C132.007 158.412 117.101 147.136 99.9995 134.234C82.8981 147.136 68.0098 158.412 68.0098 158.412Z" fill="#FCA326"/>
<path d="M49.7714 96.2609C40.6722 89.4321 30.1752 84.7004 19.0326 82.4048L18.8051 83.0084C15.5135 91.609 15.1071 101.047 17.6475 109.898C20.1878 118.75 25.537 126.536 32.8887 132.082L32.9674 132.143L33.1773 132.292L68.01 158.377C68.01 158.377 82.8808 147.137 99.9997 134.199L49.7714 96.2609Z" fill="#FC6D26"/>
</svg>

<svg xmlns="http://www.w3.org/2000/svg" width="200" height="200" fill="none"><path fill="#fff" d="M.5.5h199v199H.5z"/><path fill="#E24329" d="m181.203 83.043-.236-.604-22.866-59.675a5.96 5.96 0 0 0-2.353-2.834 6.12 6.12 0 0 0-6.998.376 6.12 6.12 0 0 0-2.03 3.079l-15.439 47.237H68.762l-15.44-47.237a6 6 0 0 0-2.029-3.088 6.12 6.12 0 0 0-6.998-.376 6 6 0 0 0-2.353 2.834l-22.91 59.65-.227.603a42.46 42.46 0 0 0 14.084 49.074l.078.061.21.149 34.833 26.085 17.233 13.042 10.497 7.926a7.06 7.06 0 0 0 8.537 0l10.497-7.926 17.233-13.042 35.043-26.243.087-.07a42.476 42.476 0 0 0 14.066-49.02"/><path fill="#FC6D26" d="m181.203 83.043-.236-.604a77.2 77.2 0 0 0-30.747 13.822L100 134.234a46644 46644 0 0 0 31.99 24.178l35.042-26.243.088-.07a42.476 42.476 0 0 0 14.083-49.056"/><path fill="#FCA326" d="m68.01 158.412 17.232 13.043 10.498 7.925a7.06 7.06 0 0 0 8.537 0l10.497-7.925 17.233-13.043s-14.906-11.276-32.008-24.178a24167 24167 0 0 0-31.99 24.178"/><path fill="#FC6D26" d="M49.771 96.26a77.14 77.14 0 0 0-30.738-13.855l-.228.603a42.46 42.46 0 0 0 14.084 49.074l.078.061.21.149 34.833 26.085s14.87-11.24 31.99-24.178z"/></svg>
